X:1
T:Patrick O'Connor's
R:polka
M:2/4
L:1/8
K:Ador
|:~A2 eA|eA eg/e/|dB gB|dB gB|
|~A2 eA|eA eg/e/|dB gB|1 BA AE:|2 BA Ae|]
|:a>g ef/g/|ag ef/e/|dB gB|dB gB|
|a>g ef/g/|ag ef/e/|dB gB|1 BA Ae:|2 BA AE|]